packages/kronos-fna-icons/src/arrow-down.svg

<?xml version="1.0" encoding="UTF-8"?>
<svg width="20px" height="12px" viewBox="0 0 20 12" version="1.1" xmlns="http://www.w3.org/2000/svg" xmlns:xlink="http://www.w3.org/1999/xlink">
    <!-- Generator: Sketch 50.2 (55047) - http://www.bohemiancoding.com/sketch -->
    <title>arrow-down</title>
    <desc>Created with Sketch.</desc>
    <defs></defs>
    <g id="arrow-down" stroke="none" stroke-width="1" fill="none" fill-rule="evenodd">
        <path d="M20,1.7093359 C20,1.87333975 19.9191919,2.06044273 19.8002245,2.18286814 L10.4601571,11.7944177 C10.338945,11.919153 10.1593715,12 10,12 C9.84062851,12 9.65881033,11.9168431 9.53984287,11.7944177 L0.199775533,2.18286814 C0.0785634119,2.05813282 0,1.87333975 0,1.7093359 C0,1.54533205 0.0808080808,1.35822907 0.199775533,1.23580366 L1.20089787,0.205582291 C1.32210999,0.0808469682 1.48148148,0 1.66105499,0 C1.82042649,0 2.00224467,0.0831568816 2.12121212,0.205582291 L9.99775533,8.31106833 L17.8742985,0.205582291 C17.9955107,0.0808469682 18.1750842,0 18.3344557,0 C18.4938272,0 18.6756453,0.0831568816 18.7946128,0.205582291 L19.7957351,1.23580366 C19.9169473,1.36053898 19.9955107,1.54533205 19.9955107,1.7093359 L20,1.7093359 Z" id="Shape" fill="#000000" fill-rule="nonzero"></path>
    </g>
</svg>

<svg viewBox="0 0 20 12" xmlns="http://www.w3.org/2000/svg">
    <title>arrow-down</title>
    <path d="M20 1.709a.726.726 0 0 1-.2.474l-9.34 9.612a.677.677 0 0 1-.46.206.682.682 0 0 1-.46-.206L.2 2.183a.72.72 0 0 1-.2-.474c0-.164.081-.351.2-.474L1.201.205a.64.64 0 0 1 .46-.206c.159 0 .341.083.46.206L9.998 8.31 17.875.205a.677.677 0 0 1 .46-.206c.159 0 .341.083.46.206l1.001 1.03c.121.125.2.31.2.474H20z" />
</svg>
